X: 31563
T: Paganini's
R: hornpipe
M: 4/4
K: Dmajor
|:(3FGE|DA (3BAG FdAf|dafd' bagf|egba gfed|(3efd (3cdB (3ABG (3FGE|
DA (3BAG FdAf|dafd' bagf|ebge dcec|dAfe d2:|
|:(3abc'|d'2B2 ceac'|b2d2 Adfa|gfba gfed|(3cfe (3dcB A2Bc|
dAGF ecBA|fdcB gedc|(3ad'c' (3bag (3fba (3gfe|dAfe d2:|

